X:1
T:The Stranger of Galilee
T:Leila Naylor Morris (1862-1929)
T:The Stranger of Galilee
T:Public Domain
T:Public Domain
T:Public Domain
C:Leila Naylor Morris (1862-1929)
Z:Public Domain
%%score ( 1 2 ) ( 3 4 )
L:1/8
M:6/8
K:F
V:1 treble 
V:2 treble 
V:3 bass 
V:4 bass 
V:1
 C | [FA]>[FA][FA] [CF][CG][FA] | [FB]2 [FB] [FA]2 [DG]/[DG]/ | [CF]>[CE][CF] [EG]2 [Ec] | %4
w: 1.~In|cy I stood by the shore,|one day, Of the beau-|ti- ful mur- m’ring sea;|
w: 2.~His|of com- pas- sion, His words|of love, They shall nev-|er for- got- ten be;|
w: 3.~I|Him speak peace to the ang-|ry waves, Of that tur-|bu- lent, rag- ing sea;|
w: 4.~Come|who are driv- en, and temp-|est tossed, And His gra-|cious sal- va- tion see;|
 [Fc]3- [Fc]2 [GB] | [FA]>[FA][FA] [CF][CG][FA] | [FB]2 [FB] [FA]2 [DG]/[DG]/ | %7
w: I * saw|the great crowds as they thronged|the way Of the Stran-|
w: When * sin|sick and help- less He saw|me there, Th- is Stran-|
w: And * lo!|at His word are the wa-|ters stilled, Th- is Stran-|
w: He’ll * qui-|et life’s storms with His “Peace,|be still!” Th- is Stran-|
 [CF]>[CE][CF] [FA]2 [FG] | [EG]3- [EG]2 [EG] | [GB][GB][GB] [^FA][FA][FA] | %10
w: ger of Gal- i- lee;|I * saw|how the man who was blind|
w: ger of Gal- i- lee;|He * showed|me His hand and His riv-|
w: ger of Gal- i- lee;|A * peace-|ful, a qui- et, and ho-|
w: ger of Gal- i- lee;|He * bids|me to go and the sto-|
 [DG]2 [DG] D2 D/[DE]/ | [CF]>[CE][CF] [EG]2 [Ec] | (F2 E [Fc]2) [Fc] | [Fd][Fd][Fd] [Fc]FF | %14
w: from birth, In a mo-|made to see; The lame|was * * made|by the match- less skill Of|
w: en side, And He whis-|was for thee!” My bur-|den * * fell|at the pierc- èd feet Of|
w: ly calm, Now and ev-|bides with me; He hold-|eth * * my|in His might- y hands, Th-|
w: ry tell— What He ev-|you will be, If on-|ly * * you|Him with you a- bide, Th-|
 [EB]2 [EB] [FA]2 [FA]/[FA]/ | [Fc]F[GB] (FD)[EG] | [CF]3- [CF]2 ||"^Refrain" [Ac]/[Ac]/ | %18
w: ger of Gal- i- lee.||||
w: ger from Gal- i- lee.|And I felt I * could|for- *|ev- er,|
w: ger of Gal- i- lee.||||
w: ger of Gal- i- lee.|4.~Oh, my friend, won’t * you|for- *|ev- er?|
 [Bc]>[Bd][Bc] [Fc]>[Fd][Fc] | [Ff]3 [Fd]2 [Fd] | [Fc]>[FA][FA] [CF][CE][CF] | (C2 F [EG]2) [Ec] | %22
w: ||||
w: So gra- cious and ten- der|was He! I|claimed Him that day as my|Sav- * * ior,|
w: ||||
w: So gra- cious and ten- der|is He! Ac-|cept Him to- day as your|Sav- * * ior,|
 [Fc]>[FB][FA] [_EA][EG][EA] | [DB]3 [Fd]2 [Fd] | [Fc]F[GB] (FD)[EG] | [CF]3- [CF]2 |] %26
w: ||||
w: Stran- ger of Gal- i- lee.||||
w: ||||
w: Stran- ger of Gal- i- lee.||||
V:2
 C | x6 | x6 | x6 | x6 | x6 | x6 | x6 | x6 | x6 | x3 D2 D/ x/ | x6 | c3- x3 | x4 FF | x6 | %15
w: fan-||||||||||ment was||whole|the Stran-||
w: look||||||||||pered, “It||off|the Stran-||
w: heard||||||||||er a-||life|is Stran-||
w: ye||||||||||er to||let|is Stran-||
 x F A2 x2 | x5 || x | x6 | x6 | x6 | G3- x3 | x6 | x6 | x F A2 x2 | x5 |] %26
w: |||||||||||
w: love Him||||||This|||||
w: |||||||||||
w: love Him||||||This|||||
V:3
 [F,A,] | [F,C]>[F,C][F,C] [F,A,][F,B,][F,C] | [B,,D]2 [B,,D] [F,C]2 [B,,B,]/[B,,B,]/ | %3
 [C,A,]>[C,G,][C,A,] [C,B,]2 [C,G,] | ([F,A,]3 [G,B,]2) [C,C] | %5
 [F,C]>[F,C][F,C] [F,A,][F,B,][F,C] | [B,,D]2 [B,,D] [F,C]2 [B,,B,]/[B,,B,]/ | %7
 [C,A,]>[C,G,][C,A,] [D,=B,]2 [G,,B,] | [C,C]3- [C,C]2 [C,C] | %9
 [G,,D][G,,D][G,,D] [A,,C][A,,C][A,,C] | [B,,B,]2 [B,,B,] [=B,,^G,]2 [B,,G,]/[B,,G,]/ | %11
 [C,A,]>[C,G,][C,A,] [C,B,]2 [C,G,] | ([F,A,]2 [G,B,] [A,C]2) [F,A,] | B,B,B, [A,C][A,C][A,C] | %14
 [G,C]2 [C,C] [F,C]2 [F,C]/[F,C]/ | [A,,C][D,A,][G,,D] [C,C]2 [C,B,] | [F,,F,A,]3- [F,,F,A,]2 || %17
 [F,F]/[F,F]/ | [G,E]>[G,E][G,E] [A,F]>[A,F][A,F] | [B,D]3 [B,,B,]2 [B,,B,] | %20
 [F,A,]>[F,C][F,C] [A,C][G,B,][F,A,] | ([E,C]2 [D,=B,] [C,_B,]2) [C,B,] | %22
 [F,A,]>[F,D][F,C] [F,C][F,C]F, | [B,,F,]3 [B,,B,]2 [=B,,^G,] | [C,A,][D,A,][G,,D] [C,C]2 [C,B,] | %25
 [G,,F,A,]3- [G,,F,A,]2 |] %26
V:4
 x | x6 | x6 | x6 | x6 | x6 | x6 | x6 | x6 | x6 | x6 | x6 | x6 | B,B,B, x3 | x6 | x6 | x5 || x | %18
 x6 | x6 | x6 | x6 | x5 F, | x6 | x6 | x5 |] %26

